; generated by PrusaSlicer 2.5.2+win64 on 2023-06-28 at 16:38:05 UTC


;
;

;
;
; 

; external perimeters extrusion width = 0.45mm
; perimeters extrusion width = 0.45mm
; infill extrusion width = 0.45mm
; solid infill extrusion width = 0.45mm
; top infill extrusion width = 0.40mm
; first layer extrusion width = 0.42mm

M73 P0 R19
M201 X2500 Y2500 Z400 E5000 ; sets maximum accelerations, mm/sec^2
M203 X180 Y180 Z12 E80 ; sets maximum feedrates, mm / sec
M204 P2000 R1250 T2500 ; sets acceleration (P, T) and retract acceleration (R), mm/sec^2
M205 X8.00 Y8.00 Z2.00 E10.00 ; sets the jerk limits, mm/sec
M205 S0 T0 ; sets the minimum extruding and travel feed rate, mm/sec
M107
;TYPE:Custom
M862.3 P "MINI" ; printer model check
G90 ; use absolute coordinates
M83 ; extruder relative mode
M104 S170 ; set extruder temp for bed leveling
M140 S60 ; set bed temp
M109 R170 ; wait for bed leveling temp
M190 S60 ; wait for bed temp
M204 T1250 ; set travel acceleration
G28 ; home all without mesh bed level
G29 ; mesh bed leveling 
M204 T2500 ; restore travel acceleration
M104 S215 ; set extruder temp
G92 E0
G1 Y-2 X179 F2400
G1 Z3 F720
M109 S215 ; wait for extruder temp

; intro line
G1 X170 F1000
G1 Z0.2 F720
G1 X110 E8 F900
G1 X40 E10 F700
G92 E0

M221 S95 ; set flow
G21 ; set units to millimeters
G90 ; use absolute coordinates
M83 ; use relative distances for extrusion
M900 K0.2 ; Filament gcode LA 1.5
; ; Filament gcode LA 1.0
M107
;LAYER_CHANGE
;Z:0.2
;HEIGHT:0.2
;BEFORE_LAYER_CHANGE
G92 E0.0
;0.2


G1 E-3.2 F4200
M73 P1 R19
G1 Z.2 F720
;AFTER_LAYER_CHANGE
;0.2
G1 Z.4
G1 X53.592 Y81.752 F9000
G1 Z.2 F720
G1 E3.2 F2400
M204 P600
;TYPE:Skirt/Brim
;WIDTH:0.42
G1 F1200
G1 X54.572 Y81.185 E.03549
G1 X55.61 Y80.734 E.03549
G1 X57.537 Y80.238 E.06238
G1 X58.953 Y80.127 E.04455
G1 X125.113 Y83.223 E2.07665
G1 X126.667 Y83.679 E.05079
G1 X127.539 Y84.128 E.03075
G1 X128.594 Y84.918 E.04134
G1 X129.655 Y86.143 E.0508
G1 X130.287 Y87.3 E.04135
G1 X130.61 Y88.239 E.03114
G1 X130.838 Y89.83 E.0504
G1 X130.744 Y91.146 E.04134
G1 X130.512 Y92.098 E.03074
G1 X130.147 Y93.009 E.03075
G1 X129.271 Y94.371 E.05079
G1 X128.595 Y95.082 E.03075
G1 X127.824 Y95.689 E.03075
G1 X126.975 Y96.18 E.03075
G1 X126.065 Y96.545 E.03075
G1 X124.777 Y96.825 E.04134
G1 X59.822 Y99.843 E2.03881
G1 X58.664 Y99.868 E.03632
M73 P2 R19
G1 X57.537 Y99.762 E.03549
G1 X55.61 Y99.266 E.06237
G1 X54.286 Y98.663 E.04562
G1 X53.367 Y98.095 E.03387
G1 X52.478 Y97.395 E.03549
G1 X51.128 Y95.933 E.06237
G1 X50.328 Y94.677 E.0467
G1 X49.879 Y93.732 E.03279
G1 X49.512 Y92.662 E.03549
G1 X49.172 Y90.702 E.06237
G1 X49.172 Y89.298 E.04402
G1 X49.317 Y88.175 E.03549
G1 X49.589 Y87.077 E.03549
G1 X50.367 Y85.246 E.06237
G1 X51.128 Y84.067 E.04402
G1 X52.478 Y82.605 E.06237
G1 X53.545 Y81.788 E.04214
M204 P1000
; printing object screw meter v1.stl id:0 copy 0
G1 E-2.24 F4200
;WIPE_START
G1 F7200
G1 X54.572 Y81.185 E-.66025
G1 X54.989 Y81.004 E-.25175
;WIPE_END
G1 E-.048 F4200
G1 Z.4 F720
G1 X123.986 Y86.369 F9000
G1 Z.2 F720
G1 E3.2 F2400
M204 P600
;TYPE:Perimeter
;WIDTH:0.576471
G1 F1200
G1 X124.503 Y86.405 E.023
;WIDTH:0.570364
G1 X125.011 Y86.518 E.02282
;WIDTH:0.574024
G1 X125.493 Y86.704 E.02282
G1 X125.947 Y86.953 E.02289
;WIDTH:0.571355
G1 X126.362 Y87.265 E.02278
;WIDTH:0.573793
G1 X126.724 Y87.636 E.0229
G1 X127.034 Y88.052 E.02288
;WIDTH:0.572193
G1 X127.282 Y88.507 E.02281
;WIDTH:0.573416
G1 X127.458 Y88.995 E.02288
G1 X127.565 Y89.502 E.02286
;WIDTH:0.572881
G1 X127.603 Y90.019 E.02284
;WIDTH:0.57288
G1 X127.56 Y90.536 E.02286
;WIDTH:0.573416
G1 X127.447 Y91.042 E.02287
G1 X127.266 Y91.527 E.02286
;WIDTH:0.572193
G1 X127.013 Y91.98 E.02283
;WIDTH:0.573793
G1 X126.7 Y92.393 E.02288
G1 X126.319 Y92.77 E.02364
;WIDTH:0.571354
G1 X125.916 Y93.067 E.02203
;WIDTH:0.574024
G1 X125.459 Y93.312 E.0229
G1 X124.973 Y93.493 E.02289
;WIDTH:0.569218
G1 X124.244 Y93.618 E.03237
;WIDTH:0.595521
G1 X123.528 Y93.645 E.03293
G1 X123.4 Y93.672 E.00602
;WIDTH:0.551641
G1 X123.272 Y93.7 E.00554
;WIDTH:0.50776
G1 X123.144 Y93.728 E.00507
;WIDTH:0.46388
G1 X123.016 Y93.756 E.00459
;WIDTH:0.419999
G1 X58.871 Y96.71 E2.01335
G1 X58.104 Y96.649 E.02412
G1 X57.349 Y96.5 E.02412
G1 X56.616 Y96.266 E.02412
G1 X55.915 Y95.95 E.02412
G1 X55.254 Y95.555 E.02412
G1 X54.643 Y95.087 E.02412
G1 X54.09 Y94.553 E.02412
G1 X53.601 Y93.959 E.02412
G1 X53.184 Y93.313 E.02412
G1 X52.841 Y92.617 E.0243
G1 X52.583 Y91.898 E.02395
G1 X52.408 Y91.149 E.02412
G1 X52.32 Y90.385 E.02412
G1 X52.32 Y89.615 E.02412
G1 X52.408 Y88.851 E.02412
G1 X52.583 Y88.102 E.02412
G1 X52.843 Y87.377 E.02412
G1 X53.183 Y86.688 E.02412
G1 X53.601 Y86.041 E.02412
G1 X54.09 Y85.447 E.02412
G1 X54.643 Y84.913 E.02412
G1 X55.254 Y84.445 E.02412
G1 X55.915 Y84.05 E.02412
G1 X56.616 Y83.734 E.02412
G1 X57.349 Y83.5 E.02412
G1 X58.103 Y83.351 E.02412
G1 X58.873 Y83.291 E.0242
G1 X123.015 Y86.244 E2.01327
;WIDTH:0.465163
G1 X123.187 Y86.275 E.0061
;WIDTH:0.510327
G1 X123.358 Y86.305 E.00675
;WIDTH:0.55549
G1 X123.529 Y86.336 E.00741
;WIDTH:0.576471
G1 X123.926 Y86.365 E.01766
M204 P1000
G1 X124.016 Y85.915 F9000
M204 P600
;TYPE:External perimeter
;WIDTH:0.419999
G1 F1200
G1 X124.599 Y85.964 E.01834
G1 X125.169 Y86.095 E.01833
G1 X125.711 Y86.305 E.01823
G1 X126.219 Y86.591 E.01827
G1 X126.681 Y86.946 E.01827
G1 X127.088 Y87.363 E.01829
G1 X127.431 Y87.834 E.01827
G1 X127.704 Y88.349 E.01827
G1 X127.901 Y88.898 E.01829
G1 X128.018 Y89.469 E.01828
G1 X128.052 Y90.051 E.01826
G1 X128.014 Y90.582 E.01669
G1 X127.89 Y91.152 E.01829
G1 X127.686 Y91.699 E.01829
G1 X127.407 Y92.211 E.01829
G1 X127.057 Y92.678 E.01829
G1 X126.645 Y93.09 E.01829
G1 X126.178 Y93.44 E.01829
G1 X125.665 Y93.719 E.01829
G1 X125.119 Y93.923 E.01829
G1 X124.549 Y94.047 E.01829
G1 X123.943 Y94.091 E.01905
G1 X58.862 Y97.088 E2.04272
G1 X58.052 Y97.023 E.02548
M73 P3 R19
G1 X57.255 Y96.866 E.02548
G1 X56.481 Y96.619 E.02548
G1 X55.74 Y96.284 E.02548
G1 X55.042 Y95.868 E.02548
G1 X54.397 Y95.374 E.02548
G1 X53.812 Y94.809 E.02548
G1 X53.296 Y94.181 E.02548
G1 X52.855 Y93.499 E.02548
G1 X52.493 Y92.765 E.02566
G1 X52.221 Y92.005 E.0253
G1 X52.036 Y91.214 E.02548
G1 X51.943 Y90.406 E.02548
G1 X51.943 Y89.594 E.02548
G1 X52.036 Y88.786 E.02548
G1 X52.221 Y87.995 E.02548
G1 X52.495 Y87.23 E.02548
G1 X52.855 Y86.501 E.02548
G1 X53.296 Y85.819 E.02548
G1 X53.812 Y85.191 E.02548
G1 X54.397 Y84.626 E.02548
G1 X55.042 Y84.132 E.02548
G1 X55.74 Y83.716 E.02548
G1 X56.481 Y83.381 E.02548
G1 X57.255 Y83.134 E.02548
G1 X58.052 Y82.977 E.02548
G1 X58.867 Y82.913 E.02562
G1 X123.956 Y85.91 E2.04299
M204 P1000
G1 X124.191 Y86.275 F9000
G1 X123.63 Y86.917
M204 P600
;TYPE:Perimeter
;WIDTH:0.576471
G1 F1200
G1 X123.9 Y86.897 E.01202
G1 X124.392 Y86.921 E.02182
;WIDTH:0.570364
G1 X124.954 Y87.051 E.0253
;WIDTH:0.564859
G1 X125.509 Y87.299 E.02638
;WIDTH:0.568133
G1 X125.997 Y87.645 E.02614
G1 X126.442 Y88.12 E.02839
;WIDTH:0.567212
G1 X126.779 Y88.675 E.02833
G1 X126.993 Y89.289 E.02834
;WIDTH:0.566437
G1 X127.075 Y89.933 E.02829
;WIDTH:0.57288
G1 X127.038 Y90.452 E.02291
;WIDTH:0.573416
G1 X126.946 Y90.867 E.01875
G1 X126.779 Y91.325 E.02152
;WIDTH:0.567212
G1 X126.521 Y91.773 E.02254
;WIDTH:0.566345
G1 X126.096 Y92.265 E.02829
;WIDTH:0.571354
G1 X125.634 Y92.621 E.02565
G1 X124.991 Y92.935 E.03143
;WIDTH:0.570363
G1 X124.392 Y93.079 E.02701
;WIDTH:0.580907
G1 X123.708 Y93.105 E.03059
;WIDTH:0.595521
G1 X123.573 Y93.098 E.00625
G1 X123.451 Y93.05 E.00602
;WIDTH:0.551641
G1 X123.329 Y93.002 E.00554
;WIDTH:0.50776
G1 X123.207 Y92.953 E.00507
;WIDTH:0.46388
G1 X123.085 Y92.905 E.00459
;WIDTH:0.419999
G1 X122.5 Y92.658 E.0199
G1 X121.98 Y92.295 E.0199
G1 X121.546 Y91.832 E.0199
G1 X121.218 Y91.289 E.0199
G1 X121.01 Y90.689 E.0199
G1 X120.932 Y90.059 E.0199
G1 X120.986 Y89.427 E.0199
G1 X121.17 Y88.819 E.0199
G1 X121.477 Y88.264 E.0199
G1 X121.892 Y87.784 E.0199
G1 X122.398 Y87.401 E.0199
G1 X122.973 Y87.132 E.0199
;WIDTH:0.465163
G1 X123.174 Y87.062 E.00749
;WIDTH:0.510327
G1 X123.375 Y86.991 E.00829
;WIDTH:0.55549
G1 X123.571 Y86.923 E.00882
M204 P1000
G1 X123.578 Y87.377 F9000
M204 P600
;TYPE:External perimeter
;WIDTH:0.419999
G1 F1200
G1 X123.669 Y87.356 E.00294
G1 X124.225 Y87.352 E.01744
G1 X124.768 Y87.464 E.01738
G1 X125.294 Y87.693 E.01797
G1 X125.732 Y88.01 E.01697
G1 X126.107 Y88.42 E.01744
G1 X126.389 Y88.9 E.01744
G1 X126.565 Y89.428 E.01744
G1 X126.627 Y89.98 E.01744
G1 X126.573 Y90.534 E.01744
G1 X126.405 Y91.064 E.01744
G1 X126.131 Y91.548 E.01744
G1 X125.762 Y91.964 E.01744
G1 X125.314 Y92.294 E.01744
G1 X124.808 Y92.524 E.01744
G1 X124.298 Y92.636 E.01637
G1 X123.708 Y92.648 E.01848
G1 X123.164 Y92.536 E.01744
G1 X122.654 Y92.314 E.01744
G1 X122.201 Y91.99 E.01744
G1 X121.826 Y91.58 E.01744
G1 X121.545 Y91.1 E.01744
G1 X121.369 Y90.572 E.01744
G1 X121.307 Y90.02 E.01744
G1 X121.361 Y89.466 E.01744
G1 X121.529 Y88.936 E.01744
G1 X121.803 Y88.452 E.01744
G1 X122.172 Y88.036 E.01744
G1 X122.62 Y87.706 E.01744
G1 X123.126 Y87.476 E.01744
G1 X123.519 Y87.39 E.01261
M204 P1000
G1 X123.602 Y87.286 F9000
G1 E-2.24 F4200
;WIPE_START
G1 F7200
G1 X123.669 Y87.356 E-.08526
G1 X124.225 Y87.352 E-.3082
G1 X124.768 Y87.464 E-.30715
G1 X125.118 Y87.616 E-.21139
;WIPE_END
G1 E-.048 F4200
G1 Z.4 F720
G1 X109.012 Y87.119 F9000
G1 Z.2 F720
G1 E3.2 F2400
M204 P600
;TYPE:Perimeter
G1 F1200
G1 X109.575 Y86.988 E.01812
G1 X110.209 Y86.975 E.0199
G1 X110.832 Y87.095 E.0199
G1 X111.417 Y87.342 E.0199
G1 X111.938 Y87.705 E.0199
G1 X112.372 Y88.168 E.0199
G1 X112.699 Y88.711 E.0199
G1 X112.907 Y89.311 E.0199
G1 X112.986 Y89.941 E.0199
G1 X112.932 Y90.573 E.0199
G1 X112.748 Y91.181 E.0199
G1 X112.441 Y91.736 E.0199
G1 X112.026 Y92.216 E.0199
G1 X111.52 Y92.599 E.0199
G1 X110.945 Y92.868 E.0199
G1 X110.327 Y93.012 E.0199
G1 X109.692 Y93.025 E.0199
G1 X109.069 Y92.905 E.0199
G1 X108.484 Y92.658 E.0199
G1 X107.964 Y92.295 E.0199
G1 X107.53 Y91.832 E.0199
G1 X107.202 Y91.289 E.0199
G1 X106.994 Y90.689 E.0199
G1 X106.916 Y90.059 E.0199
G1 X106.97 Y89.427 E.0199
G1 X107.154 Y88.819 E.0199
G1 X107.46 Y88.264 E.0199
G1 X107.876 Y87.784 E.0199
G1 X108.382 Y87.401 E.0199
G1 X108.954 Y87.133 E.01979
M204 P1000
G1 X108.915 Y87.565 F9000
M204 P600
;TYPE:External perimeter
G1 F1200
G1 X109.11 Y87.476 E.00672
G1 X109.692 Y87.352 E.01867
G1 X110.209 Y87.352 E.01621
G1 X110.754 Y87.464 E.01744
G1 X111.264 Y87.686 E.01744
G1 X111.716 Y88.01 E.01744
G1 X112.091 Y88.42 E.01744
G1 X112.373 Y88.9 E.01744
G1 X112.549 Y89.428 E.01744
G1 X112.611 Y89.98 E.01744
G1 X112.557 Y90.534 E.01744
G1 X112.389 Y91.064 E.01744
G1 X112.114 Y91.548 E.01744
G1 X111.745 Y91.964 E.01744
G1 X111.298 Y92.294 E.01744
G1 X110.792 Y92.524 E.01744
G1 X110.248 Y92.644 E.01744
G1 X109.692 Y92.648 E.01744
G1 X109.147 Y92.536 E.01744
G1 X108.638 Y92.314 E.01744
G1 X108.185 Y91.99 E.01744
G1 X107.81 Y91.58 E.01744
G1 X107.529 Y91.1 E.01744
G1 X107.353 Y90.572 E.01744
G1 X107.291 Y90.02 E.01744
G1 X107.345 Y89.466 E.01744
G1 X107.513 Y88.936 E.01744
G1 X107.787 Y88.452 E.01744
G1 X108.156 Y88.036 E.01744
G1 X108.604 Y87.706 E.01744
G1 X108.86 Y87.59 E.00884
M204 P1000
G1 X108.926 Y87.351 F9000
G1 E-2.24 F4200
;WIPE_START
G1 F7200
G1 X109.11 Y87.476 E-.15203
G1 X109.692 Y87.352 E-.32991
G1 X110.209 Y87.352 E-.28647
G1 X110.463 Y87.404 E-.1436
;WIPE_END
G1 E-.048 F4200
G1 Z.4 F720
G1 X96.9 Y91.23 F9000
G1 Z.2 F720
G1 E3.2 F2400
M204 P600
;TYPE:Perimeter
G1 F1200
G1 X96.621 Y91.736 E.01814
G1 X96.205 Y92.216 E.0199
G1 X95.699 Y92.599 E.0199
G1 X95.125 Y92.868 E.0199
G1 X94.507 Y93.012 E.0199
G1 X93.872 Y93.025 E.0199
G1 X93.249 Y92.905 E.0199
G1 X92.664 Y92.658 E.0199
G1 X92.144 Y92.295 E.0199
G1 X91.71 Y91.832 E.0199
G1 X91.382 Y91.289 E.0199
G1 X91.174 Y90.689 E.0199
G1 X91.095 Y90.059 E.0199
M73 P4 R19
G1 X91.149 Y89.427 E.0199
G1 X91.334 Y88.819 E.0199
G1 X91.64 Y88.264 E.0199
G1 X92.056 Y87.784 E.0199
G1 X92.562 Y87.401 E.0199
G1 X93.136 Y87.132 E.0199
G1 X93.754 Y86.988 E.0199
G1 X94.389 Y86.975 E.0199
G1 X95.012 Y87.095 E.0199
G1 X95.597 Y87.342 E.0199
G1 X96.118 Y87.705 E.0199
G1 X96.551 Y88.168 E.0199
G1 X96.879 Y88.711 E.0199
G1 X97.087 Y89.311 E.0199
G1 X97.166 Y89.941 E.0199
G1 X97.112 Y90.573 E.0199
G1 X96.929 Y91.177 E.01977
M204 P1000
G1 X96.525 Y91.142 F9000
M204 P600
;TYPE:External perimeter
G1 F1200
G1 X96.294 Y91.548 E.01464
G1 X95.925 Y91.964 E.01744
G1 X95.478 Y92.294 E.01744
G1 X94.971 Y92.524 E.01744
G1 X94.428 Y92.644 E.01744
G1 X93.872 Y92.648 E.01744
G1 X93.327 Y92.536 E.01744
G1 X92.818 Y92.314 E.01744
G1 X92.365 Y91.99 E.01744
G1 X91.99 Y91.58 E.01744
G1 X91.708 Y91.1 E.01744
G1 X91.533 Y90.572 E.01744
G1 X91.47 Y90.02 E.01744
G1 X91.524 Y89.466 E.01744
G1 X91.692 Y88.936 E.01744
G1 X91.967 Y88.452 E.01744
G1 X92.336 Y88.036 E.01744
G1 X92.783 Y87.706 E.01744
G1 X93.29 Y87.476 E.01744
G1 X93.833 Y87.356 E.01744
G1 X94.389 Y87.352 E.01744
G1 X94.934 Y87.464 E.01744
G1 X95.444 Y87.686 E.01744
G1 X95.896 Y88.01 E.01744
G1 X96.271 Y88.42 E.01744
G1 X96.553 Y88.9 E.01744
G1 X96.728 Y89.428 E.01744
G1 X96.791 Y89.98 E.01744
G1 X96.737 Y90.534 E.01744
G1 X96.554 Y91.089 E.01833
M204 P1000
G1 X96.76 Y91.465 F9000
G1 E-2.24 F4200
;WIPE_START
G1 F7200
G1 X96.294 Y91.548 E-.29201
G1 X95.925 Y91.964 E-.3082
G1 X95.478 Y92.294 E-.3082
G1 X95.472 Y92.297 E-.0036
;WIPE_END
G1 E-.048 F4200
G1 Z.4 F720
G1 X75.294 Y92.882 F9000
G1 Z.2 F720
G1 E3.2 F2400
M204 P600
;TYPE:Perimeter
G1 F1200
G1 X74.762 Y92.658 E.01808
G1 X74.242 Y92.295 E.0199
G1 X73.808 Y91.832 E.0199
G1 X73.48 Y91.289 E.0199
G1 X73.272 Y90.689 E.0199
G1 X73.204 Y90.162 E.01666
G1 X73.204 Y89.842 E.01002
G1 X73.272 Y89.311 E.01679
G1 X73.432 Y88.819 E.01621
G1 X73.738 Y88.264 E.0199
G1 X74.154 Y87.784 E.0199
G1 X74.66 Y87.401 E.0199
G1 X75.235 Y87.132 E.0199
G1 X75.853 Y86.988 E.0199
G1 X76.487 Y86.975 E.0199
G1 X77.11 Y87.095 E.0199
G1 X77.695 Y87.342 E.0199
G1 X78.216 Y87.705 E.0199
G1 X78.65 Y88.168 E.0199
G1 X78.977 Y88.711 E.0199
G1 X79.185 Y89.311 E.0199
G1 X79.264 Y89.941 E.0199
G1 X79.21 Y90.573 E.0199
G1 X79.026 Y91.181 E.0199
G1 X78.719 Y91.736 E.0199
G1 X78.304 Y92.216 E.0199
G1 X77.798 Y92.599 E.0199
G1 X77.223 Y92.868 E.0199
G1 X76.605 Y93.012 E.0199
G1 X75.97 Y93.025 E.0199
G1 X75.349 Y92.905 E.01983
M204 P1000
G1 X75.013 Y92.356 F9000
M204 P600
;TYPE:External perimeter
G1 F1200
G1 X74.882 Y92.294 E.00456
G1 X74.463 Y91.99 E.01621
G1 X74.088 Y91.58 E.01744
G1 X73.807 Y91.1 E.01744
G1 X73.631 Y90.572 E.01744
G1 X73.569 Y90.02 E.01744
G1 X73.623 Y89.466 E.01744
G1 X73.791 Y88.936 E.01744
G1 X74.065 Y88.452 E.01744
G1 X74.434 Y88.036 E.01744
G1 X74.882 Y87.706 E.01744
G1 X75.388 Y87.476 E.01744
G1 X75.931 Y87.356 E.01744
G1 X76.487 Y87.352 E.01744
G1 X77.032 Y87.464 E.01744
G1 X77.542 Y87.686 E.01744
G1 X77.994 Y88.01 E.01744
G1 X78.369 Y88.42 E.01744
G1 X78.651 Y88.9 E.01744
G1 X78.827 Y89.428 E.01744
G1 X78.889 Y89.98 E.01744
G1 X78.835 Y90.534 E.01744
G1 X78.667 Y91.064 E.01744
G1 X78.392 Y91.548 E.01744
G1 X78.023 Y91.964 E.01744
G1 X77.576 Y92.294 E.01744
G1 X77.07 Y92.524 E.01744
G1 X76.526 Y92.644 E.01744
G1 X75.97 Y92.648 E.01744
G1 X75.425 Y92.536 E.01744
G1 X75.068 Y92.38 E.01222
M204 P1000
G1 X74.898 Y92.445 F9000
G1 E-2.24 F4200
;WIPE_START
G1 F7200
G1 X74.882 Y92.294 E-.11389
G1 X74.463 Y91.99 E-.28647
G1 X74.088 Y91.58 E-.3082
G1 X73.902 Y91.263 E-.20345
;WIPE_END
G1 E-.048 F4200
G1 Z.4 F720
G1 X57.425 Y87.308 F9000
G1 Z.2 F720
G1 E3.2 F2400
M204 P600
;TYPE:Perimeter
G1 F1200
G1 X57.506 Y87.256 E.00301
G1 X58.005 Y87.034 E.01711
G1 X58.653 Y86.887 E.02086
G1 X59.274 Y86.875 E.01945
G1 X59.923 Y86.998 E.02071
G1 X60.536 Y87.256 E.02086
G1 X61.081 Y87.637 E.02086
G1 X61.533 Y88.125 E.02086
G1 X61.853 Y88.657 E.01945
G1 X62.072 Y89.28 E.02071
G1 X62.149 Y89.869 E.01864
G1 X62.088 Y90.633 E.02401
G1 X61.9 Y91.239 E.01992
G1 X61.576 Y91.816 E.02074
G1 X61.167 Y92.285 E.0195
G1 X60.64 Y92.684 E.02074
G1 X60.037 Y92.966 E.02086
G1 X59.388 Y93.113 E.02086
G1 X58.768 Y93.125 E.01945
G1 X58.159 Y93.011 E.01944
G1 X57.506 Y92.744 E.02211
G1 X56.961 Y92.363 E.02086
G1 X56.494 Y91.858 E.02156
G1 X56.188 Y91.343 E.01876
G1 X55.945 Y90.605 E.0244
